assets/icons/qvision/attach_money.svg

<svg width="24" height="24" viewBox="0 0 24 24" fill="none" xmlns="http://www.w3.org/2000/svg">
<g clip-path="url(#clip0_147_2520)">
<path d="M11.8001 10.9C9.53007 10.31 8.80007 9.7 8.80007 8.75C8.80007 7.66 9.81007 6.9 11.5001 6.9C13.2801 6.9 13.9401 7.75 14.0001 9H16.2101C16.1401 7.28 15.0901 5.7 13.0001 5.19V3H10.0001V5.16C8.06007 5.58 6.50007 6.84 6.50007 8.77C6.50007 11.08 8.41007 12.23 11.2001 12.9C13.7001 13.5 14.2001 14.38 14.2001 15.31C14.2001 16 13.7101 17.1 11.5001 17.1C9.44007 17.1 8.63007 16.18 8.52007 15H6.32007C6.44007 17.19 8.08007 18.42 10.0001 18.83V21H13.0001V18.85C14.9501 18.48 16.5001 17.35 16.5001 15.3C16.5001 12.46 14.0701 11.49 11.8001 10.9Z" fill="#323232"/>
</g>
<defs>
<clipPath id="clip0_147_2520">
<rect width="24" height="24" fill="white"/>
</clipPath>
</defs>
</svg>

<svg xmlns="http://www.w3.org/2000/svg" height="24" viewBox="0 0 24 24" width="24"><path d="M0 0h24v24H0z" fill="none"/><path d="M11.8 10.9c-2.27-.59-3-1.2-3-2.15 0-1.09 1.01-1.85 2.7-1.85 1.78 0 2.44.85 2.5 2.1h2.21c-.07-1.72-1.12-3.3-3.21-3.81V3h-3v2.16c-1.94.42-3.5 1.68-3.5 3.61 0 2.31 1.91 3.46 4.7 4.13 2.5.6 3 1.48 3 2.41 0 .69-.49 1.79-2.7 1.79-2.06 0-2.87-.92-2.98-2.1h-2.2c.12 2.19 1.76 3.42 3.68 3.83V21h3v-2.15c1.95-.37 3.5-1.5 3.5-3.55 0-2.84-2.43-3.81-4.7-4.4z"/></svg>
